src/images/footer_icon_5.svg

<svg width="40" height="40" viewBox="0 0 40 40" fill="none" xmlns="http://www.w3.org/2000/svg">
<rect width="40" height="40" rx="20" fill="#15131D"/>
<g clip-path="url(#clip0_447_25714)">
<path d="M18.4467 18.6204C18.2079 18.64 17.9851 18.7488 17.8228 18.9251C17.6604 19.1013 17.5703 19.3322 17.5703 19.5718C17.5703 19.8115 17.6604 20.0423 17.8228 20.2186C17.9851 20.3949 18.2079 20.5036 18.4467 20.5233C18.5669 20.5189 18.685 20.4907 18.7942 20.4404C18.9035 20.3901 19.0017 20.3186 19.0832 20.2302C19.1647 20.1417 19.2278 20.038 19.269 19.925C19.3102 19.812 19.3286 19.692 19.3231 19.5718C19.329 19.4516 19.3109 19.3314 19.2699 19.2182C19.2289 19.105 19.1657 19.0011 19.0842 18.9126C19.0026 18.824 18.9042 18.7526 18.7948 18.7024C18.6853 18.6523 18.567 18.6244 18.4467 18.6204ZM21.5753 18.6204C21.3838 18.6047 21.192 18.6471 21.025 18.7421C20.8579 18.8371 20.7235 18.9803 20.6392 19.153C20.5549 19.3256 20.5246 19.5197 20.5524 19.7099C20.5802 19.9 20.6647 20.0773 20.7949 20.2186C20.9251 20.3599 21.0949 20.4587 21.2821 20.502C21.4693 20.5452 21.6652 20.531 21.8442 20.4611C22.0232 20.3912 22.1769 20.269 22.2853 20.1103C22.3937 19.9516 22.4517 19.764 22.4517 19.5718C22.4571 19.4519 22.4388 19.332 22.3978 19.2191C22.3567 19.1063 22.2938 19.0026 22.2125 18.9142C22.1312 18.8258 22.0333 18.7543 21.9243 18.7039C21.8153 18.6534 21.6974 18.6251 21.5774 18.6204H21.5753Z" fill="#757185"/>
<path d="M25.7429 11.4287H14.2572C14.0257 11.4293 13.7965 11.4755 13.5829 11.5646C13.3693 11.6538 13.1753 11.7842 13.0121 11.9484C12.8489 12.1126 12.7197 12.3073 12.6318 12.5215C12.544 12.7357 12.4992 12.9651 12.5 13.1966V24.783C12.4992 25.0145 12.544 25.2439 12.6318 25.458C12.7197 25.6722 12.8489 25.867 13.0121 26.0312C13.1753 26.1953 13.3693 26.3258 13.5829 26.4149C13.7965 26.5041 14.0257 26.5503 14.2572 26.5509H23.9772L23.5229 24.9651L24.62 25.983L25.6572 26.943L27.5 28.5716V13.1966C27.5009 12.9651 27.4561 12.7357 27.3682 12.5215C27.2803 12.3073 27.1511 12.1126 26.9879 11.9484C26.8247 11.7842 26.6307 11.6538 26.4171 11.5646C26.2035 11.4755 25.9744 11.4293 25.7429 11.4287V11.4287ZM22.4343 22.6251C22.4343 22.6251 22.1257 22.2566 21.8686 21.9287C22.4903 21.7834 23.0407 21.4229 23.4222 20.9109C23.1137 21.1161 22.7831 21.2858 22.4364 21.4166C22.0377 21.5868 21.6207 21.7104 21.1936 21.7851C20.4595 21.9203 19.7066 21.9174 18.9736 21.7766C18.5432 21.6924 18.1215 21.569 17.7136 21.408C17.3691 21.2745 17.0401 21.1042 16.7322 20.9001C17.099 21.4018 17.6295 21.7596 18.2322 21.9116C17.975 22.2373 17.6579 22.623 17.6579 22.623C17.1487 22.6367 16.644 22.5251 16.1881 22.2979C15.7322 22.0707 15.3392 21.7349 15.0436 21.3201C15.0707 19.5826 15.492 17.874 16.2757 16.323C16.9666 15.7804 17.809 15.4659 18.6864 15.423L18.7722 15.5259C17.9474 15.73 17.1777 16.1133 16.5179 16.6487C16.5179 16.6487 16.7064 16.5459 17.0236 16.4001C17.6404 16.1187 18.2978 15.9364 18.9714 15.8601C19.0194 15.8502 19.0682 15.8445 19.1172 15.843C19.6915 15.7682 20.2728 15.7624 20.8486 15.8259C21.754 15.9293 22.6305 16.2088 23.4286 16.6487C22.8022 16.1389 22.0748 15.7678 21.2943 15.5601L21.4143 15.423C22.2917 15.4659 23.1341 15.7804 23.825 16.323C24.6087 17.874 25.03 19.5826 25.0572 21.3201C24.7594 21.7349 24.3648 22.0706 23.9076 22.298C23.4505 22.5255 22.9447 22.6378 22.4343 22.6251Z" fill="#757185"/>
</g>
<defs>
<clipPath id="clip0_447_25714">
<rect width="17.1429" height="17.1429" fill="white" transform="translate(11.4277 11.4287)"/>
</clipPath>
</defs>
</svg>

<svg xmlns="http://www.w3.org/2000/svg" width="40" height="40" fill="none"><rect width="40" height="40" fill="#15131D" rx="20"/><g fill="#757185" clip-path="url(#a)"><path d="M18.447 18.62a.954.954 0 0 0 0 1.903.91.91 0 0 0 .876-.951.908.908 0 0 0-.876-.952Zm3.128 0a.955.955 0 1 0 .877.952.913.913 0 0 0-.875-.952h-.002Z"/><path d="M25.743 11.429H14.257a1.764 1.764 0 0 0-1.757 1.768v11.586a1.763 1.763 0 0 0 1.757 1.768h9.72l-.454-1.586 1.097 1.018 1.037.96 1.843 1.629V13.197a1.76 1.76 0 0 0-1.757-1.768Zm-3.309 11.196s-.308-.368-.565-.696a2.705 2.705 0 0 0 1.553-1.018c-.308.205-.639.375-.986.506a5.64 5.64 0 0 1-1.242.368 6.004 6.004 0 0 1-2.22-.008 7.194 7.194 0 0 1-1.26-.369 5.133 5.133 0 0 1-.982-.508c.367.502.898.86 1.5 1.012-.257.325-.574.711-.574.711a3.108 3.108 0 0 1-2.614-1.303 11.477 11.477 0 0 1 1.232-4.997 4.238 4.238 0 0 1 2.41-.9l.086.103a5.782 5.782 0 0 0-2.254 1.123s.188-.103.506-.249a6.439 6.439 0 0 1 1.947-.54.85.85 0 0 1 .146-.017 6.987 6.987 0 0 1 4.311.806 5.706 5.706 0 0 0-2.134-1.089l.12-.137c.878.043 1.72.357 2.411.9a11.479 11.479 0 0 1 1.232 4.997 3.132 3.132 0 0 1-2.623 1.305Z"/></g><defs><clipPath id="a"><path fill="#fff" d="M11.428 11.429H28.57v17.143H11.428z"/></clipPath></defs></svg>
